X: 39821
T: Thief Lane
R: jig
M: 6/8
K: Eminor
|:BEF GFE|BEF GFE|c2c BAG|F/G/AG FED|
BEF GFE|BEF GFE|c2c BAG|FED E2B:|
|:efg fed|BdB G2B|ced cBA|BcA Bcd|
efg fed|BdB GAB|c2c BAG|FED E2B:|

